/* XPM */
static char *south[] = {
"64 64 11 1",
"  c #0a1017",
". c #14202e",
"B c #28415e",
"H c #4d76a8",
"P c #3b5c80",
"S c #36567d",
"b c #1d2f44",
"d c #182b3d",
"g c #0e1824",
"p c #22384f",
"y c #d0e8ff",
" HHHHHHHHHHHHHHHHHHHHHHHHHHHHHHHHHHHHHHHHHHHHHH. HHHHHHHHHHHHHHH",
" HHHHHHHHHHHHHHHHHHHHHHHHHHHHHHHHHHHHHHHHHHHHHH. HHHHHHHHHHHHHHH",
" HHBBbSBBbHSBBbSBBbHSBBbSBBbHSBBbSBBbHSBBbSBBbb. HHSBBbHSBBbSBBb",
" HHBBbHSBBbSBBbHSBBbSBBbHSBBbSBBbHSBBbSBBbHSBBb. HHHSBBbSBBbHSBB",
" HHSBBbSBBbHSBBbSBBbHSBBbSBBbHSBBbSBBbHSBBbSBBb. HHbSBBbHSBBbSBB",
" HHSBBbHSBBbSBBbHSBBbSBBbHSBBbSBBbHSBBbSBBbHSBb. HHbHSBBbSBBbHSB",
" HHHSBBbSBBbHSBBbSBBbHSBBbSBBbHSBBbSBBbHSBBbSBb. HHBbSBBbHSBBbSB",
" HHbSBBbHSBBbSBBbHSBBbSBBbHSBBbSBBbHSBBbSBBbHSb. HHBbHSBBbSBBbHS",
" HHbHSBBbSBBbHSBBbSBBbHSBBbSBBbHSBBbSBBbHSBBbSb. HHBBbSBBbHSBBbS",
" HHBbSBBbHSBBbSBBbHSBBbSBBbHSBBbSBBbHSBBbSBBbHb. HHBBbHSBBbSBBbH",
" HHBbHSBBbSBBbHSBBbSBBbHSBBbSBBbHSBBbSBBbHSBBbb. HHSBBbSBBbHSBBb",
" HHBBbSBBbHSBBbSBBbHSBBbSBBbHSBBbSBBbHSBBbSBBbb. HHSBBbHSBBbSBBb",
" HHBBbHSBBbSBBbHSBBbSBBbHSBBbSBBbHSBBbSBBbHSBBb. HHHSBBbSBBbHSBB",
" HHbbbbbbbbbbbbbbbbbbbbbbbbbbbbbbbbbbbbbbbbbbbb. HHbbbbbbbbbbbbb",
"................................................................",
"                                                                ",
"HHHHHHHHHHHHHHHHHHHHHHH. HHHHHHHHHHHHHHHHHHHHHHHHHHHHHHHHHHHHHHH",
"HHHHHHHHHHHHHHHHHHHHHHH. HHHHHHHHHHHHHHHHHHHHHHHHHHHHHHHHHHHHHHH",
"BBbSBBbHSBBbSBBbHSBBbSb. HHBBbSBBbHSBBbSBBbHSBBbSBBbHSBBbSBBbHSB",
"BBbHSBBbSBBbHSBBbSBBbHb. HHBBbHSBBbSBBbHSBBbSBBbHSBBbSBBbHSBBbSB",
"SBBbSBBbHSBBbSBBbHSPPPPPPPPPPPPPPPPPPPPPPPPPPSBBbSBBbHSBBbSBBbHS",
"SBBbHSBBbSBBbHSBBbSPppppppppppppppppppppppppgSBBbHSBBbSBBbHSBBbS",
"HSBBbSBBbHSBBbSBBbHPppppppppppppppppppppppppgHSBBbSBBbHSBBbSBBbH",
"bSBBbHSBBbSBBbHSBBbPppppppppppppppppppppppppgbSBBbHSBBbSBBbHSBBb",
"bHSBBbSBBbHSBBbSBBbPppppppppppppppppppppppppgbHSBBbSBBbHSBBbSBBb",
"BbSBBbHSBBbSBBbHSBBPpppppppyyyyyyyyyppppppppgBbSBBbHSBBbSBBbHSBB",
"BbHSBBbSBBbHSBBbSBBPppppppyyyyyyyyyyypppppppgBbHSBBbSBBbHSBBbSBB",
"BBbSBBbHSBBbSBBbHSBPppppppyydddddddyydppppppgBBbSBBbHSBBbSBBbHSB",
"BBbHSBBbSBBbHSBBbSBPppppppyydpppppppddppppppgBBbHSBBbSBBbHSBBbSB",
"bbbbbbbbbbbbbbbbbbbPppppppyyypppppppppppppppgbbbbbbbbbbbbbbbbbbb",
"...................Ppppppppyyyyyyyypppppppppg...................",
"                   Pppppppppyyyyyyyyppppppppg                   ",
" HHHHHHHHHHHHHHHHHHPpppppppppdddddyyypppppppgHH. HHHHHHHHHHHHHHH",
" HHHHHHHHHHHHHHHHHHPpppppppppppppppyydppppppgHH. HHHHHHHHHHHHHHH",
" HHbHSBBbSBBbHSBBbSPppppppyypppppppyydppppppgSb. HHBBbSBBbHSBBbS",
" HHBbSBBbHSBBbSBBbHPppppppyyyyyyyyyyydppppppgHb. HHBBbHSBBbSBBbH",
" HHBbHSBBbSBBbHSBBbPpppppppyyyyyyyyyddppppppgbb. HHSBBbSBBbHSBBb",
" HHBBbSBBbHSBBbSBBbPppppppppyyyyyyyddpppppppgbb. HHSBBbHSBBbSBBb",
" HHBBbHSBBbSBBbHSBBPpppppppppdddddddppppppppgBb. HHHSBBbSBBbHSBB",
" HHSBBbSBBbHSBBbSBBPppppppppppppppppppppppppgBb. HHbSBBbHSBBbSBB",
" HHSBBbHSBBbSBBbHSBPppppppppppppppppppppppppgBb. HHbHSBBbSBBbHSB",
" HHHSBBbSBBbHSBBbSBPppppppppppppppppppppppppgBb. HHBbSBBbHSBBbSB",
" HHbSBBbHSBBbSBBbHSPppppppppppppppppppppppppgSb. HHBbHSBBbSBBbHS",
" HHbHSBBbSBBbHSBBbSPgggggggggggggggggggggggggSb. HHBBbSBBbHSBBbS",
" HHBbSBBbHSBBbSBBbHSBBbSBBbHSBBbSBBbHSBBbSBBbHb. HHBBbHSBBbSBBbH",
" HHbbbbbbbbbbbbbbbbbbbbbbbbbbbbbbbbbbbbbbbbbbbb. HHbbbbbbbbbbbbb",
"................................................................",
"                                                                ",
"HHHHHHHHHHHHHHHHHHHHHHH. HHHHHHHHHHHHHHHHHHHHHHHHHHHHHHHHHHHHHHH",
"HHHHHHHHHHHHHHHHHHHHHHH. HHHHHHHHHHHHHHHHHHHHHHHHHHHHHHHHHHHHHHH",
"bHSBBbSBBbHSBBbSBBbHSBb. HHbHSBBbSBBbHSBBbSBBbHSBBbSBBbHSBBbSBBb",
"BbSBBbHSBBbSBBbHSBBbSBb. HHBbSBBbHSBBbSBBbHSBBbSBBbHSBBbSBBbHSBB",
"BbHSBBbSBBbHSBBbSBBbHSb. HHBbHSBBbSBBbHSBBbSBBbHSBBbSBBbHSBBbSBB",
"BBbSBBbHSBBbSBBbHSBBbSb. HHBBbSBBbHSBBbSBBbHSBBbSBBbHSBBbSBBbHSB",
"BBbHSBBbSBBbHSBBbSBBbHb. HHBBbHSBBbSBBbHSBBbSBBbHSBBbSBBbHSBBbSB",
"SBBbSBBbHSBBbSBBbHSBBbb. HHSBBbSBBbHSBBbSBBbHSBBbSBBbHSBBbSBBbHS",
"SBBbHSBBbSBBbHSBBbSBBbb. HHSBBbHSBBbSBBbHSBBbSBBbHSBBbSBBbHSBBbS",
"HSBBbSBBbHSBBbSBBbHSBBb. HHHSBBbSBBbHSBBbSBBbHSBBbSBBbHSBBbSBBbH",
"bSBBbHSBBbSBBbHSBBbSBBb. HHbSBBbHSBBbSBBbHSBBbSBBbHSBBbSBBbHSBBb",
"bHSBBbSBBbHSBBbSBBbHSBb. HHbHSBBbSBBbHSBBbSBBbHSBBbSBBbHSBBbSBBb",
"BbSBBbHSBBbSBBbHSBBbSBb. HHBbSBBbHSBBbSBBbHSBBbSBBbHSBBbSBBbHSBB",
"bbbbbbbbbbbbbbbbbbbbbbb. HHbbbbbbbbbbbbbbbbbbbbbbbbbbbbbbbbbbbbb",
"................................................................",
"                                                                "
};
