/* XPM */
static char *west[] = {
"64 64 13 1",
"  c #121412",
". c #222622",
"G c #4c9945",
"H c #6e756e",
"M c #2f632a",
"P c #465e44",
"S c #525752",
"d c #122610",
"g c #151c14",
"m c #1e3d1c",
"p c #2a3b29",
"s c #383b38",
"y c #a2ff8f",
"GM Gm Gm Mm M  M GM Gm Gm Mm M  M GM Gm Gm Mm M  M GM Gm Gm Mm M",
" Gm.M.M.Gm.M.Gm.M.Gm M.M.Gm.M.Gm.M.Gm.M.M.Gm.M.Gm.M.Gm.M.M.Gm.M.",
"m.MSMSMsMSGSGmGmsmSM MsMSMSGHGmGmHmSMSMHM.MSGSGmGmSmSMHMsMSM GsG",
"G.MssSSSSHsSSMSHHsSS MHssSSSSHMSSSSHHsSSM.MssSSMSHsSSSSHHsSS mHs",
" mGSsSHSSHSSSSsSSsSM MSSHSSsSsSHsSHSMSSsM.mSsSHSSHSSSMsSSsSHG.MS",
"mMHsHsSHSSMSsSHsSSSSmGsSSHSMSSSSHsSHSHSSmGHsMsSHSSsSsSHsSSSSMGsS",
"M.SSSssSsSSMHSSSSSSsMGSHSHHSMSSsSssSSHHSmMSSSMsSsSSHHSSSSSSs MGH",
" .mSMSHsHsSSSHsSsSSSMGSSSSSHsSSSSSHsSSMHmMGSSSHsHsSSSHsMsSSS .MS",
" mMSsSHSsSHSSsSMHSSsG.SSSHSSsSHSMSsSHSSs mMsSHSSSMSHSSsSSSsSG.Ss",
"MMGMHsSHHsSHSSSSSHSSG.sSSSsSHsSHsSHsSMSS mmSSSsSSSSSsSMssSHsMMGS",
"GGSHSssSSssSSSSsSHMS .SHsSSHSssSHSSMSHHS .HSsSSHSSSsMSSSHSSSmmmS",
" .SSSSHsSSHssSSSSSSH .SSHsSSSSHsSHsSSSSH .SHHsSSsSSSSHsSSHsS .SH",
"SsSHSHSSSMsGMMHSsSHSHSSsSsMHSHSMMmSSSSsSsSHMHSSsHSSmmsSHSHSSMSsS",
"SSSSSSsMsSHm.sSHHsSHSHSSMSSSSSs .GsSsSHsHMSHSHSSSHSMMmSSSSMSsSHs",
" GMm   GMm  GMMm  GMm   GMm  GMMm  GMm   GMm  GMMm  GMm   GMm  G",
"..GMm.GMm..Mm..GM..GMm.GMm..Mm. GM..GMm.GMm..Mm..GM .GMm.GMm..Mm",
"MSSMmHGMsSMm.GmHGMHSMmSGMSsMmSGm.GMHSMmSGMSsMmSGmSGM.HMmsGMSSMmH",
"MHSSSSsSHsS MSSSHMSHSSSSsSHsSHS MSMSsSHsSHSSSSsSSHSGMSsSHsSHSSSS",
"SHHSsSSHMssM.GSsSssSSSSsHMSSSHHm.MSsHSSSSHMSsSSHSHH GmSHSssMSSSs",
"SSSHHsSSSSH GmMSSSHssSSSSHsSSSSGmSSSSHsSSSSHHsSSMSSm.MSSSSHssSSS",
"sSHSHSSsSSs mGHSSSsPPPPPPPPPPPPPPPPPPPPPPPPPPSSMsSHG.MSsSSsSsSHS",
"HsMHSHSSsSHM.mSHsSHPppppppppppppppppppppppppgHSSHsS mGSSsSHsHsSH",
"SssSSHHSHSM MssSHSSPppppppppppppppppppppppppgHHSSssmMHHSHSSSSMsS",
"SSHsSSSHSHsG.mHsSHsPppppppppppppppppppppppppgMSHSSHM.SSHSHsSSSMs",
"SSmMGSSsHSSsSHSSSHSPppppppppppppppppppppppppgSsSSSsSHSSMHSSsSHMG",
"sSMGSHSSSHSSSSsMSSsPppppyypppppypppppyypppppgSHssMHsSHSSSHSSSS m",
"HSGGSHHSSHHSsSSHsSSPppppyydppppydppppyydppppgSSSHSSSSHMSSHHSsSG.",
"SM .SSSHSSSHHsSSHsMPppppyydppppydppppyydppppgHsSSHsSMSSHSSSHHsmM",
"                   Pppppyydpppyyyppppyydppppg                   ",
"mm ......GGGMMMMmmmPppppyydpppyyydpppyydppppgGMMMMmmm.......GGGM",
"MMmmHSSGGMMmSHHSGMMPppppyydppyydyypppyydppppgmSssSGMMmmSSsGGMMm.",
"HsMmSHsSSSHsMSSHsSSPpppppyyppyydyydpyyddppppgSMSHsSSSHsSSSHsSS G",
"SsGMmSMSHSSsSHSSsSHPpppppyydyyddpyypyydpppppgSSsSHSSsSHSSMSHSSMm",
"SS MmSHsSHSSSSsSMsSPpppppyydyydppyydyydpppppgHSSSSMSHsSHSSSSsSm.",
"MS GmSSSSHHSsSSHSMsPppppppyyyydppyyyyddpppppgHHSsSSMSssSSSSsHS M",
"sSm.MHsSMSSHHsSSSSHPppppppyyyddpppyyydppppppgSSHHsSSSSHssSSMSHM.",
"HSSsSsSHsSHSHmGmSSsPppppppyyddpppppyydppppppgSsSMsSHSM.MHSSsSsSH",
"SHSSSSSSHsSHSGmGsSHPppppppyydppppppyydppppppgSHMSSSSSM.MSHSSSSSS",
"SHMSSSSsSssSSmGSHSSPpppppppddpppppppddppppppgSSSSSSssG.MSHHSSSSs",
"SSSHsSSSSSMsS .MSHsPppppppppppppppppppppppppgHsSsSSSH mGSSSHsMSS",
"sSHSSsSHSsSMSmGSSHSPppppppppppppppppppppppppgMSHHSSsS MGSHSSsSMS",
"HsSHMSSSSSSSs .mSSsPppppppppppppppppppppppppgSSSSHSSSmMGSSsSHsSH",
" mMG   mMG  mMMG  mPppppppppppppppppppppppppg mMMG  mMG   mMG  m",
"MMGG...mmMMG. ..mMMPgggggggggggggggggggggggggG....mMMGG...mmMMG.",
"GGsSsSHSHmmmMMMMGGGHSHSSSSmmmMMMMGGGSHSSSSsmmmMMMMGGG .sSsSHmmmM",
"sSHsHsSHSHSSS .SSSSSSSsSsSHsHsSHS .SSSsSsSHsHsSHHsSHS .SSSSSSSsS",
"HSSSSssSSMHSSMMMSSSssSSHHSMSSssSSmmmsSSHHSSMSssSSssSS .SSSSsMSSH",
"SHsSSSHMSSSHs .SsSSSHsSSMHsSSSHssGMMHsSSSMsSSSHsSSHsSmmHsSMSHsSS",
"SHSS .HSSsSHMSsSSsSHSSsSGMmsSMSSHSSsSHSSsSHS .GHsSHSSsSHSSsSHSSM",
"SSsSm.GHSSSSsSHsSSSSsSHMMmSSSSsSSHSSSSsSMsSH MmSHsSHSSSSsMHsSHSS",
"sSSHm.GSSSSsHSSSMSSsHSSSM.HSsSSHSMHSsSSHSssSMmSsSsMSSSSsHSSSSHHS",
"MsSSm.GssSSSSHsSsMSSSHsSm.MHHsSSSSMHHsSSSSHsm.MSSSHMsSSSSHsSSSSH",
"SsSHM.MSMSSsSsSHHSSsSsSH GmSHSSssSHSHSSsSSMS MHSSSsSsSHSSHSMSSsS",
"SSSSM.MSSHSSSSMSSHSSSSSS MSHSHSMHsSHSHSSsSHsG.GHMSHsHsSHSSsSsSHs",
"SSSsM.MHSHHSSMSsSHHSSSSs MsSSHMSSssSSHHSHSSSm.mMHSSSSssSsSSHHSSS",
"sSMSM.MSSSSHsSSSSSSMsSSS mGsSSSHSSHsMSSHSHsS MHsSHsSSMHsHsSSSHsS",
"mM mG mG MG M  M mM mG mG MG M  M mM mG mG MG M  M mM mG mG MG M",
"M..MG.mM..MG.mG.mM..MG.mM..MG.mG.mM..MG.mM..MG.mG.mM..MG.mM..MG.",
"SHmMG.mMGSSMGssmMssmMGSmMGSsMGSSmMSSmMGSmMGS MGHsmMHSmMGSmMGSSMG",
"SSSH .SSHsSSSSHMSSHssSSSmMGSSHsSMHsSSSSHSSSH .mSHMSSSSHsSSHssSSS",
"sSHMHSSsSsSHSHS mMsSMSHSHSSsSsSHSHSMGGsSsSHSHSSsSsSHSHM .SsSsSHS",
"HMSHSHSSSSSSSSsMGGMsHsSHSHSSSSSSSSsG.SHsHsSHSHSSSSSSMSs .SHsHsSH",
"SssSSHHSSSSssSS .SSSSssSSHHSSSSssSS .SSSSssSSHHSSSSssSS .SSSSssS",
"SSHsSSSHsMSSHsSMmmsSSSHsSSMHsSSSHsSm.HsSSSHMSSSHsSSSHsS .HsSMSHs"
};
